X:1
T:Prayer (Butcher), CM
T:Prayer (Butcher), CM
T:William U. Butcher, 1860
T:Public Domain Courtesy of the Cyber Hymnal™
C:William U. Butcher, 1860
Z:Public Domain
Z:Courtesy of the Cyber Hymnal™
%%score ( 1 2 ) ( 3 4 )
L:1/8
Q:1/4=125
M:3/4
K:C
V:1 treble 
V:2 treble 
V:3 bass 
V:4 bass 
V:1
 [EG]2 | ([EG]2 [CE]2) [EG]2 | [FA]4 [FA]2 | ([Ac]2 [GB]2) [FA]2 | [EG]4 [EG]2 | [EG]4 [EG]2 | %6
 (c2 G2) [CE]2 | [B,D]4 [B,D]2 | [CE]4 [EG]2 | [Ec]4 [EG]2 | [FA]2 [Ac]2 [FA]2 | [EG]4 [Gc]2 | %12
 [Gd]4 [Gd]2 | (d2 e2) [Fd]2 | [Ec]4 |] %15
V:2
 x2 | x6 | x6 | x6 | x6 | x6 | E4 x2 | x6 | x6 | x6 | x6 | x6 | x6 | G4 x2 | x4 |] %15
V:3
 [C,G,]2 | [C,G,]4 [C,C]2 | [F,C]4 [F,C]2 | [F,C]4 [F,C]2 | [C,C]4 [C,C]2 | [C,C]4 [C,C]2 | %6
 [C,G,]4 [E,G,]2 | G,4 [G,,G,]2 | [C,G,]4 [C,G,]2 | [C,G,]4 [C,C]2 | [F,C]4 [F,C]2 | %11
 [C,C]4 [E,C]2 | [G,B,]4 [G,B,]2 | (B,2 C2) [G,,B,]2 | [C,C]4 |] %15
V:4
 x2 | x6 | x6 | x6 | x6 | x6 | x6 | G,4 x2 | x6 | x6 | x6 | x6 | x6 | G,,4 x2 | x4 |] %15

